Newaita/actions/32/draw-polygon.svg

<svg height="32" viewBox="0 0 32 32" width="32" xmlns="http://www.w3.org/2000/svg"><path d="m15.933594 4.226562c-.304688-.011718-.605469.078126-.847656.261719l-10.582032 7.9375c-.445312.332031-.632812.902344-.472656 1.433594l3.96875 13.230469c.167969.554687.679688.9375 1.261719.9375h13.230469c.582031 0 1.09375-.382813 1.261718-.9375l3.96875-13.230469c.15625-.53125-.03125-1.101563-.472656-1.433594l-10.582031-7.9375c-.214844-.160156-.46875-.25-.734375-.261719zm-.058594 2.960938 9.058594 6.792969-3.421875 11.414062h-11.269531l-3.425782-11.414062zm0 0" fill="#424242"/></svg>

<?xml version="1.0" encoding="UTF-8"?>
<svg xmlns="http://www.w3.org/2000/svg" xmlns:xlink="http://www.w3.org/1999/xlink" width="32px" height="32px" viewBox="0 0 32 32" version="1.1">
<g id="surface1">
<path style=" stroke:none;fill-rule:nonzero;fill:rgb(25.882354%,25.882354%,25.882354%);fill-opacity:1;" d="M 15.933594 4.226562 C 15.628906 4.214844 15.328125 4.304688 15.085938 4.488281 L 4.503906 12.425781 C 4.058594 12.757812 3.871094 13.328125 4.03125 13.859375 L 8 27.089844 C 8.167969 27.644531 8.679688 28.027344 9.261719 28.027344 L 22.492188 28.027344 C 23.074219 28.027344 23.585938 27.644531 23.753906 27.089844 L 27.722656 13.859375 C 27.878906 13.328125 27.691406 12.757812 27.25 12.425781 L 16.667969 4.488281 C 16.453125 4.328125 16.199219 4.238281 15.933594 4.226562 Z M 15.875 7.1875 L 24.933594 13.980469 L 21.511719 25.394531 L 10.242188 25.394531 L 6.816406 13.980469 Z M 15.875 7.1875 "/>
</g>
</svg>
